X: 6451
T: Cat And The Crows, The
R: reel
M: 4/4
K: Dmajor
dB|AFEF D2 DB,|A,B,EF EDB,D|~E3D EFAF|dBAF ~G3B|
AFEF D2 DB,|A,B,EF EDB,D|~E3D EFAB|AFEF D2:|
((3ABc)|d3e fedf|afbf afed|efed ((3Bcd) ef|~g3e fedB|
dcde fedf|afbf afed|efed BcdB|AFEF D2:|

